images_elementary_svg/cmd/sc_inserttable.svg

<svg viewBox="0 0 16 16" xmlns="http://www.w3.org/2000/svg" xmlns:xlink="http://www.w3.org/1999/xlink"><linearGradient id="a" gradientTransform="matrix(.94102962 0 0 1.0270126 .46127 -4.56038)" gradientUnits="userSpaceOnUse" x1="7" x2="7" y1="-4" y2="17"><stop offset="0" stop-color="#cdf87e"/><stop offset=".26238" stop-color="#a2e34f"/><stop offset=".66093999" stop-color="#68b723"/><stop offset="1" stop-color="#1d7e0d"/></linearGradient><linearGradient id="b" gradientTransform="matrix(.59435835 0 0 .59991399 -19.26472 -.032551)" gradientUnits="userSpaceOnUse" x1="25.132275" x2="25.132275" y1="15.499894" y2="48.395687"><stop offset="0" stop-color="#fafafa"/><stop offset="1" stop-color="#e2e1de"/></linearGradient><linearGradient id="c" gradientTransform="matrix(.98703551 0 0 .88413271 .093223 -3.350946)" gradientUnits="userSpaceOnUse" x1="7" x2="7" y1="2" y2="9"><stop offset="0" stop-color="#fff"/><stop offset=".5" stop-color="#fff" stop-opacity=".235294"/><stop offset=".95056331" stop-color="#fff" stop-opacity=".156863"/><stop offset="1" stop-color="#fff" stop-opacity=".392157"/></linearGradient><g transform="translate(0 2)"><rect fill="url(#b)" height="13.999999" rx=".423727" ry=".491478" stroke-width="1.33333" width="14" x="1" y="-1"/><path d="m.5 0c-.27630145-.0003844-.50038442.2236985-.5.5v2.5 1 11.5c-.00038442.276301.22369855.500384.5.5h15c.276301.000384.500384-.223699.5-.5v-11.5-1-2.5c.000384-.2763015-.223699-.5003844-.5-.5zm.49804688.99804688h14.00390612v2.00195312h-4.001953v-2h-1v2h-4v-2h-1v2h-4.00195312zm0 3.00195312h4.00195312v3h-4v1h4v3h-4v1h4v3h1v-3h4v3h1v-3h4v-1h-4v-3h4v-1h-4v-3h4.001953v11.001953h-14.00390612zm5.00195312 0h4v3h-4zm0 4h4v3h-4z" fill="#030303" opacity=".32" transform="translate(0 -2)"/><path d="m.5-1.999999a.49930579.49930579 0 0 0 -.5.5v3.5h.99804688v-3.0019531h14.00390612v3.0019531h.998047v-3.5a.49930579.49930579 0 0 0 -.5-.5zm4.5.99999998v2.00000002h-4v1h4 1 4 1 4v-1h-4v-2.00000002h-1v2.00000002h-4v-2.00000002z" fill="#126400" opacity=".4"/><path d="m.50129612-1.4793423h15.01644788v3.0810383h-15.01644788z" fill="url(#a)" stroke-width=".983082"/><path d="m.50129512-1.4793423.000001 3.0810383 1.00944998-.0078105-.0107461-2.156385h13.0625v2.1641971l.955238.0000005.000006-3.0810383z" fill="url(#c)"/><g fill="#126400"><path d="m5-1.505821h1v3.074325h-1z" opacity=".4"/><path d="m10-1.505821h1v3.102963h-1z" opacity=".4"/></g></g></svg>

<?xml version="1.0" encoding="UTF-8" standalone="no"?>
<svg
   xmlns:dc="http://purl.org/dc/elements/1.1/"
   xmlns:cc="http://creativecommons.org/ns#"
   xmlns:rdf="http://www.w3.org/1999/02/22-rdf-syntax-ns#"
   xmlns:svg="http://www.w3.org/2000/svg"
   xmlns="http://www.w3.org/2000/svg"
   xmlns:xlink="http://www.w3.org/1999/xlink"
   xmlns:sodipodi="http://sodipodi.sourceforge.net/DTD/sodipodi-0.dtd"
   xmlns:inkscape="http://www.inkscape.org/namespaces/inkscape"
   viewBox="0 0 16 16"
   version="1.1"
   id="svg6"
   sodipodi:docname="sc_inserttable.svg"
   inkscape:version="0.92.3 (unknown)"
   inkscape:export-filename="/home/rizmut/Dokumen/Rizmut/Github/libreoffice-style-elementary/images_elementary/cmd/sc_dbviewtablenames.png"
   inkscape:export-xdpi="96"
   inkscape:export-ydpi="96">
  <metadata
     id="metadata12">
    <rdf:RDF>
      <cc:Work
         rdf:about="">
        <dc:format>image/svg+xml</dc:format>
        <dc:type
           rdf:resource="http://purl.org/dc/dcmitype/StillImage" />
        <dc:title></dc:title>
      </cc:Work>
    </rdf:RDF>
  </metadata>
  <defs
     id="defs10">
    <linearGradient
       gradientTransform="matrix(1.3831741,0,0,1.414422,-36.243337,-3.8728445)"
       id="e"
       gradientUnits="userSpaceOnUse"
       x1="8.2950277"
       x2="8.2950277"
       y1="-4.283906"
       y2="16.849756">
      <stop
         offset="0"
         stop-color="#cdf87e"
         id="stop22" />
      <stop
         offset=".26238"
         stop-color="#a2e34f"
         id="stop24" />
      <stop
         offset=".66093999"
         stop-color="#68b723"
         id="stop26" />
      <stop
         offset="1"
         stop-color="#1d7e0d"
         id="stop28" />
    </linearGradient>
    <linearGradient
       inkscape:collect="always"
       xlink:href="#e"
       id="linearGradient844"
       x1="7"
       y1="-4"
       x2="7"
       y2="17"
       gradientUnits="userSpaceOnUse"
       gradientTransform="matrix(0.94102962,0,0,1.0270126,0.4612697,-4.5603804)" />
    <linearGradient
       id="a"
       gradientTransform="matrix(0.59435835,0,0,0.59991399,-19.26472,-0.0325514)"
       gradientUnits="userSpaceOnUse"
       x1="25.132275"
       x2="25.132275"
       y1="15.499894"
       y2="48.395687">
      <stop
         offset="0"
         stop-color="#fafafa"
         id="stop2" />
      <stop
         offset="1"
         stop-color="#e2e1de"
         id="stop4" />
    </linearGradient>
    <linearGradient
       id="f"
       gradientUnits="userSpaceOnUse"
       x1="11.001243"
       x2="11.001243"
       xlink:href="#c"
       y1="2.2688611"
       y2="19.728327"
       gradientTransform="matrix(0.7677984,0,0,1.0267921,4.1154107,18.507334)" />
    <linearGradient
       id="c">
      <stop
         offset="0"
         stop-color="#fff"
         id="stop8" />
      <stop
         offset="0.5"
         stop-color="#fff"
         stop-opacity=".235294"
         id="stop10" />
      <stop
         offset=".95056331"
         stop-color="#fff"
         stop-opacity=".156863"
         id="stop12" />
      <stop
         offset="1"
         stop-color="#fff"
         stop-opacity=".392157"
         id="stop14" />
    </linearGradient>
    <linearGradient
       inkscape:collect="always"
       xlink:href="#c"
       id="linearGradient896"
       x1="7"
       y1="2"
       x2="7"
       y2="9"
       gradientUnits="userSpaceOnUse"
       gradientTransform="matrix(0.98703551,0,0,0.88413271,0.09322256,-3.3509456)" />
  </defs>
  <sodipodi:namedview
     pagecolor="#ffffff"
     bordercolor="#666666"
     borderopacity="1"
     objecttolerance="10"
     gridtolerance="10"
     guidetolerance="10"
     inkscape:pageopacity="0"
     inkscape:pageshadow="2"
     inkscape:window-width="1366"
     inkscape:window-height="706"
     id="namedview8"
     showgrid="true"
     inkscape:snap-global="true"
     inkscape:zoom="32"
     inkscape:cx="8.9694514"
     inkscape:cy="9.1349704"
     inkscape:window-x="0"
     inkscape:window-y="0"
     inkscape:window-maximized="1"
     inkscape:current-layer="g909">
    <inkscape:grid
       type="xygrid"
       id="grid846" />
  </sodipodi:namedview>
  <g
     id="g909"
     transform="translate(0,1.9999995)">
    <rect
       style="fill:url(#a);stroke-width:1.33332992"
       height="13.999999"
       rx="0.42372692"
       ry="0.4914782"
       width="14"
       x="1"
       y="-0.99999952"
       id="rect32" />
    <path
       style="opacity:0.32000002;fill:#030303;fill-opacity:1"
       d="M 0.5 0 C 0.22369855 -0.0003844 -0.00038442363 0.2236985 0 0.5 L 0 3 L 0 4 L 0 15.5 C -0.00038442363 15.776301 0.22369855 16.000384 0.5 16 L 15.5 16 C 15.776301 16.000384 16.000384 15.776301 16 15.5 L 16 4 L 16 3 L 16 0.5 C 16.000384 0.2236985 15.776301 -0.0003844 15.5 0 L 0.5 0 z M 0.99804688 0.99804688 L 15.001953 0.99804688 L 15.001953 3 L 11 3 L 11 1 L 10 1 L 10 3 L 6 3 L 6 1 L 5 1 L 5 3 L 0.99804688 3 L 0.99804688 0.99804688 z M 0.99804688 4 L 5 4 L 5 7 L 1 7 L 1 8 L 5 8 L 5 11 L 1 11 L 1 12 L 5 12 L 5 15 L 6 15 L 6 12 L 10 12 L 10 15 L 11 15 L 11 12 L 15 12 L 15 11 L 11 11 L 11 8 L 15 8 L 15 7 L 11 7 L 11 4 L 15.001953 4 L 15.001953 15.001953 L 0.99804688 15.001953 L 0.99804688 4 z M 6 4 L 10 4 L 10 7 L 6 7 L 6 4 z M 6 8 L 10 8 L 10 11 L 6 11 L 6 8 z "
       transform="translate(0,-1.9999995)"
       id="path4" />
    <path
       id="path862"
       d="m 0.5,-1.999999 a 0.49930579,0.49930579 0 0 0 -0.5,0.5 v 3.5 H 0.99804688 V -1.0019521 H 15.001953 V 2.000001 H 16 v -3.5 a 0.49930579,0.49930579 0 0 0 -0.5,-0.5 z M 5,-0.99999902 V 1.000001 H 1 v 1 h 4 1 4 1 4 v -1 H 11 V -0.99999902 H 10 V 1.000001 H 6 v -2.00000002 z"
       style="opacity:0.4;fill:#126400;fill-opacity:1"
       inkscape:connector-curvature="0" />
    <path
       sodipodi:nodetypes="ccccc"
       inkscape:connector-curvature="0"
       style="fill:url(#linearGradient844);fill-opacity:1;stroke-width:0.98308158"
       id="path2"
       d="M 0.50129612,-1.4793423 H 15.517744 V 1.601696 H 0.50129612 Z" />
    <path
       sodipodi:nodetypes="ccccccccc"
       inkscape:connector-curvature="0"
       id="rect885"
       d="m 0.50129512,-1.4793423 1e-6,3.0810383 L 1.5107461,1.5938855 1.5,-0.5624995 l 13.0625,0 v 2.1641971 l 0.955238,5e-7 6e-6,-3.0810383 z"
       style="opacity:1;fill:url(#linearGradient896);fill-opacity:1;stroke:none;stroke-width:0.93416828;stroke-linecap:round;stroke-linejoin:round;stroke-miterlimit:4;stroke-dasharray:none;stroke-dashoffset:0;stroke-opacity:1" />
    <rect
       y="-1.5058208"
       x="5"
       height="3.0743246"
       width="1"
       id="rect898"
       style="opacity:0.4;fill:#126400;fill-opacity:1;stroke:none;stroke-width:1.09305108;stroke-linecap:round;stroke-linejoin:round;stroke-miterlimit:4;stroke-dasharray:none;stroke-dashoffset:0;stroke-opacity:1" />
    <rect
       y="-1.5058208"
       x="10"
       height="3.1029625"
       width="1"
       id="rect900"
       style="opacity:0.4;fill:#126400;fill-opacity:1;stroke:none;stroke-width:1.09305108;stroke-linecap:round;stroke-linejoin:round;stroke-miterlimit:4;stroke-dasharray:none;stroke-dashoffset:0;stroke-opacity:1" />
  </g>
</svg>
